assets/icons/overcast.svg

<?xml version="1.0" encoding="UTF-8" standalone="no"?>
<svg viewBox="0 0 24 24" height="24" width="24" version="1.1" id="svg8" sodipodi:docname="overcast.svg" inkscape:version="1.1 (ce6663b3b7, 2021-05-25)"
   xmlns:inkscape="http://www.inkscape.org/namespaces/inkscape"
   xmlns:sodipodi="http://sodipodi.sourceforge.net/DTD/sodipodi-0.dtd"
   xmlns="http://www.w3.org/2000/svg"
   xmlns:svg="http://www.w3.org/2000/svg">
   <defs id="defs12" />
   <sodipodi:namedview id="namedview10" pagecolor="#ffffff" bordercolor="#666666" borderopacity="1.0" inkscape:pageshadow="2" inkscape:pageopacity="0.0" inkscape:pagecheckerboard="0" showgrid="true" inkscape:snap-page="true" inkscape:zoom="28" inkscape:cx="11.017857" inkscape:cy="10.035714" inkscape:window-width="1920" inkscape:window-height="1043" inkscape:window-x="1920" inkscape:window-y="0" inkscape:window-maximized="1" inkscape:current-layer="svg8">
      <inkscape:grid type="xygrid" id="grid125" />
   </sodipodi:namedview>
   <g id="layer9" label="status" style="display:inline;fill:#808080;fill-opacity:1" transform="translate(-790.9998,188.00025)" />
   <g id="layer2" style="display:inline;fill:#808080;fill-opacity:1" transform="translate(-549.9996,-178.99975)" />
   <g id="layer4" style="display:inline;fill:#808080;fill-opacity:1" transform="translate(-549.9996,-178.99975)" />
   <g id="g1812" style="display:inline;fill:#808080;fill-opacity:1" transform="translate(-549.9996,-178.99975)" />
   <g id="g6217" style="display:inline;fill:#808080;fill-opacity:1" transform="translate(-549.9996,-178.99975)" />
   <g id="layer3" style="display:inline;fill:#808080;fill-opacity:1" transform="translate(-549.9996,-178.99975)" />
   <g id="layer1" style="display:inline;fill:#808080;fill-opacity:1" transform="translate(-549.9996,-178.99975)" />
   <path id="circle1109" style="color:#000000;fill:#808080;fill-opacity:1;fill-rule:evenodd;stroke-linecap:round;-inkscape-stroke:none" d="M 13.5 3 C 10.792856 3 8.4682879 4.6647595 7.4921875 7.0234375 C 7.3300464 7.0074775 7.1662417 7 7 7 C 4.2445013 7 2 9.2445007 2 12 C 2 14.755499 4.2445013 17 7 17 L 8.5625 17 C 8.7946924 16.619627 9.0906708 16.282554 9.4355469 16 L 7 16 C 4.7849409 16 3 14.215059 3 12 C 3 9.7849407 4.7849409 8 7 8 C 7.058781 8 7.1176318 8.0033594 7.1757812 8.0058594 C 7.5173176 8.0204794 7.8463951 8.07741 8.1601562 8.171875 C 8.2411833 7.843628 8.3533859 7.5284165 8.4902344 7.2265625 C 9.35365 5.3220795 11.26836 4 13.5 4 C 16.543485 4 19 6.456515 19 9.5 C 19 9.680249 18.989496 9.8574598 18.972656 10.033203 C 18.940296 10.370866 18.879427 10.700738 18.789062 11.017578 C 19.131274 11.056578 19.451133 11.164338 19.736328 11.326172 C 20.491911 11.754927 21 12.564472 21 13.5 C 21 14.0641 20.81391 14.580957 20.501953 14.998047 C 20.652779 15.34577 20.76652 15.713383 20.837891 16.095703 C 21.549248 15.454214 22 14.528962 22 13.5 C 22 12.0885 21.156069 10.867026 19.947266 10.314453 C 19.980816 10.047431 20 9.775968 20 9.5 C 20 5.916075 17.083925 3 13.5 3 z M 19.398438 12.226562 C 19.353777 12.322952 19.306989 12.417943 19.257812 12.511719 C 19.306983 12.417939 19.353771 12.32295 19.398438 12.226562 z " />
   <path id="rect1606" style="fill:#808080;fill-opacity:1;fill-rule:evenodd;stroke-width:0.5;stroke-linecap:square;stroke-linejoin:round" d="m 16,13 c -1.822234,0.004 -3.411458,1.239072 -3.865234,3.003906 -0.04489,-0.0023 -0.08982,-0.0036 -0.134766,-0.0039 -1.656854,0 -3,1.343146 -3,3 0,1.656854 1.343146,3 3,3 h 7.5 c 1.380712,0 2.5,-1.119288 2.5,-2.5 -5.06e-4,-1.189077 -0.838475,-2.213261 -2.003906,-2.449219 0.0014,-0.01692 0.0027,-0.03385 0.0039,-0.05078 0,-2.209139 -1.790861,-4 -4,-4 z m 0,1 c 1.656854,0 3,1.343146 3,3 -0.0011,0.01954 -0.0024,0.03908 -0.0039,0.05859 -0.0094,0.397534 -0.09766,0.789241 -0.259766,1.152344 0.231053,-0.137483 0.494811,-0.210337 0.763672,-0.210938 0.11978,7.9e-5 0.23912,0.0145 0.355469,0.04297 0.671719,0.163851 1.14442,0.765617 1.144531,1.457031 0,0.828427 -0.671573,1.5 -1.5,1.5 h -7.5 c -1.104569,0 -2,-0.895431 -2,-2 0,-1.104569 0.895431,-2 2,-2 0.359587,2.17e-4 0.712464,0.09738 1.021484,0.28125 -0.01157,-0.09336 -0.01874,-0.187215 -0.02148,-0.28125 0.0028,-0.265579 0.04093,-0.529606 0.113281,-0.785156 0.353638,-1.304139 1.535489,-2.210918 2.886719,-2.214844 z" />
</svg>

<svg height="24" width="24" xmlns="http://www.w3.org/2000/svg"><path style="color:#000;fill:gray;fill-opacity:1;stroke-linecap:round;-inkscape-stroke:none" d="M13.5 3a6.51 6.51 0 0 0-6.008 4.023A5.008 5.008 0 0 0 2 12c0 2.755 2.245 5 5 5h1.563c.232-.38.528-.717.873-1H7c-2.215 0-4-1.785-4-4s1.785-4 4-4a4 4 0 0 1 1.16.172A5.492 5.492 0 0 1 13.5 4a5.492 5.492 0 0 1 5.473 6.033 5.505 5.505 0 0 1-.184.985A2.49 2.49 0 0 1 21 13.5a2.49 2.49 0 0 1-.497 1.498c.15.348.265.715.336 1.098A3.489 3.489 0 0 0 22 13.5a3.509 3.509 0 0 0-2.053-3.186c.034-.267.053-.538.053-.814C20 5.916 17.084 3 13.5 3zm5.898 9.227z"/><path style="fill:gray;fill-opacity:1;stroke-width:.5;stroke-linecap:square;stroke-linejoin:round" d="M16 13a4 4 0 0 0-3.865 3.004A3 3 0 1 0 12 22h7.5a2.5 2.5 0 0 0 .496-4.95A4.32 4.32 0 0 0 20 17a4 4 0 0 0-4-4zm0 1a3 3 0 0 1 3 3l-.004.059a3 3 0 0 1-.26 1.152 1.5 1.5 0 0 1 1.12-.168A1.5 1.5 0 0 1 19.5 21H12a2 2 0 1 1 1.021-3.719A2.996 2.996 0 0 1 13 17c.003-.266.04-.53.113-.785A3 3 0 0 1 16 14z"/></svg>
